X:1
T: Higgin's Hornpipe
C:
R:Reel
Q: 232
K:D
M:4/4
L:1/8
|:FE|DF AF DG BG|FA de fd AF|FA ((3def) gf ed|((3efd) ((3cdB) ((3ABG) ((3FGE)|
DF AF DG BG|FA de fd AF|FA dg fe dc|d2 f2 d2:|
|:cd|eA ((3AAA) fA ((3AAA)|gA ((3AAA) fA ((3AAA)|eA fA gA fA|((3efd) ((3cdB) ((3ABG) ((3FGE)|
DF AF DG BG|FA de fd AF|FA dg fe dc|d2 f2 d2:|
